X:1
T:12 - Vezzosi augelli
T:Luca Marenzio (1556 - 1599) 1º Libro di Madrigali a quattro voci (Venetia, 1592)
T:Torquato Tasso
T:12 - Vezzosi augelli
T:© 2018 Ed. Marcos Mato
T:© 2018 Ed. Marcos Mato
T:© 2018 Ed. Marcos Mato
T:© 2018 Ed. Marcos Mato
T:© 2018 Ed. Marcos Mato
T:© 2018 Ed. Marcos Mato
C:Luca Marenzio (1556 - 1599)
C:1º Libro di Madrigali a quattro voci (Venetia, 1592)
Z:Torquato Tasso
Z:© 2018 Ed. Marcos Mato
%%score [ 1 2 3 4 ]
L:1/8
M:4/4
K:C
V:1 alto1 nm="Soprano" snm="Sop."
V:2 alto nm="Alto" snm="A."
V:3 tenor transpose=-12 nm="Tenor" snm="T."
V:4 bass nm="Basso" snm="Bajo"
V:1
 c4 | [A,e]2 |[M:4/2] z2 c2 c2 BA G2 CD EFGA | B2 GA BcdB c2 d3 c c2- | c2 BA B4 c8 | z4 G8 A4- | %6
w: ||Vez- zo- * * si au- * * * * *|* gel- * * * * * * * * *|* * * * li|in- fra|
 A4 A8 B4- | B4 B4 e3 d/c/ B4 | A2 c3 c B2 A4 G4 | z2 G3 G F2 E4 D4 | G2 A2 B2 c2 dcBA G3 F/E/ | %11
w: _ le ver-|* di fron- * * *|de tem- pra- no\_a pro- va,|tem- pran' a pro- va|las- ci- vet- te no- * * * * * *|
 D8 E8 | e3 d/c/ B3 A/G/ F3 E/D/ C3 C | B,4 C8 C4 | z2 A2 c4 z2 e2 e2 d2 | c3 A B3 G A3 ^F G4- | %16
w: * te|mor- * * * * * * * * * mo-|ra l'au- ra,|e fa, e fa le|fo- * * * * * *|
 G4 ^F4 G8 | G6 A2 A4 A4 | z2 G2 AB c2 z2 G2 AB c2 | z2 G2 E3 E A4 G2 GG | G4 E4 z4 F4- | %21
w: * glie\_e l'on-|de, e l'on- de|gar- * * rir, gar- * * rir,|che va- ria- men- te\_el- la per-|co- te quan-|
 F4 D4 D8 | C4 B,4 C3 B, A,B,CD | C4 C4 z2 A3 A c2 | e4 e4 z2 E2 e4 | E2 E2 e4 d4 B4- | %26
w: * do tac-|cion gl'au- gel- * * * * *|* li, al- to ris-|pon- de, ris- pon-|de, ris- pon- de; quan-|
 B4 A4 z2 B4 c2 | z4 AGAB c2 c2 cBcd | e4 B3 c d4 D4 | E12 D4 | D16 | ^C4 E4 F4 G4 | A4 G4 z4 G4 | %33
w: * do, quan- do|can- * * * * tan, can- * * *|* tan gl'au- gei, più|lie- ve|sco-|te. Sia ca- so\_o|d'ar te, sia|
 A4 B4 c4 B2 e2 | c2 d4 e3 d c4 BA | GABG A4 G4 z2 d2 | B2 ^c2 d2 A2 B4"^§" =c4 | %37
w: ca- so\_o d'ar- te, sia|ca- so\_o d'ar- * * * *|* * * * * te, hor|ac- com- pagn', ed ho- ra|
 z2 c2 c2 A2 edcB A2 A2 | ^G2 A2 A4 A4 z2 F2 | E2 C2 =GFED C2 E2 G2 G2 | E2 C2 cBAG F3 E D2 F2 | %41
w: al- ter- na\_i ver- * * * * si|lor, ed ho- ra al-|ter- na\_i ver- * * * * si lor, al-|ter- na\_i ver- * * * * * * si|
 E8 E4 A4- | A2 A2 A8 E4 | A6 A2 A4 z4 | D2 E2 F2 G2 A6 B2 | c2 C2 F2 G2 A2 D2 E2 F2 | E8 E8 |] %47
w: lor la mu-|* si- ca, la|mu- si- ca|o- * * * * *||* ra.|
V:2
 A4 | [F,A]2 |[M:4/2] z2 A2 A2 GF E2 A,B, CDEF | G3 F/E/ D2 G4 FE F2 ED | E2 DC D4 C4 z2 G2 | %5
w: ||Vez- zo- * * si au- * * * * *|* * * * gel- * * * * *|* * * * li in-|
 G3 F E3 B, C2 G,2 z2 D2 | D3 E F3 C D2 A,2 z2 E2 | E3 F G4 E2 A4 ^G2 | A3 =G/F/ E4 z2 F3 F E2 | %9
w: fra le ver- di fron- de, in-|fra le ver- di fron- de, in-|fra le ver- di fron- *|* * * de tem- pra- no\_a|
 D4 D2 D3 D C2 B,4 | E4 D2 E2 FEDC B,2 G2 | G8 G8 | z2 G3 F/E/ D3 CDE ^F3 F | G4 G8 =F4 | %14
w: pro- va, tem- pra- no\_a pro-|va las- ci- vet- * * * * te|not- te|mor- * * * * * * * mo-|ra l'au- ra,|
 z2 F2 E4 z2 A2 G4 | E2 F3 E E3 D D4 ^C2 | D8 z8 | E8 F4 C4 | z2 D2 FG A2 z2 D2 FG A2 | %19
w: e fa, e fa|le fo- * * * * *|glie|e l'on- de|gar- * * rir, gar- * * rir,|
 z2 D2 A3 A F4 D2 DD | E4 G4 z4 C4- | C4 _B,4 B,8 | A,4 G,4 A,3 =B, CB,A,G, | %23
w: che va- ria- men- te\_el- la per-|co- te quan-|* do tac-|cion gl'au- gel- * * * * *|
 A,4 A,3 B, C4 z2 C2- | CC E2 G4 G2 C3 C E2 | G3 F ED C4 B,2 G4- | G4 ^F4 z2 G4 G2 | %27
w: * lim _ _ al-|* to ris- pon- de, al- to ris-|pon- * * * * de; quan-|* do, quan- do|
 z4 =FEFG A2 A2 EDEF | G4 D3 E F4 F,4 | C8 C4 A,4- | A,4 G,2 F,2 G,2 A,4 G,2 | A,4 C4 D4 E4 | %32
w: can- * * * * tan, can- * * *|* tan gl'au- gei, più|lie- ve sco-||te. Sia ca- so\_o|
 F4 E4 z4 E4 | F4 G4 A4 G4 | z2 F2 D2 G2 E3 F G4 | C2 G4 ^F2 G4 z2 D2 | G2 E2 D2 ^F2 G4 A4- | %37
w: d'ar- te, sia|ca- so\_o d'ar- te,|hor ac- com- pagn', _ _|ed ho- * ra, hor|ac- com- pagn' ed ho- ra|
 A4 z4 z2 C2 C2 D2 | EDCB, A,2 F2 E2 A2 F2 D2 | GFED C2 C2 E2 G2 E2 C2 | GFED C2 E2 z2 A,2 FEDC | %41
w: _ al- ter- na\_i|ver- * * * * si lor, al- ter- na\_i|ver- * * * * si lor, al- ter- na\_i|ver- * * * * si, i ver- * * *|
 B,2 A,2 ^G,4 z4 E4 | F6 F2 E8 | E4 F6 F2 E4 | z4 D2 E2 F2 G2 A2 GF | E2 F4 ED EF G3 F/E/ D2- | %46
w: * si lor la|mu- si- ca|la mu- si- ca|o- * * * * * *||
 D2 C2 B,4 ^C8 |] %47
w: * * * ra.|
V:3
 A,4 | [C,A]2 |[M:4/2] A,8 C8 | G,8 A,8 | G,8 z2 C2 C3 D | E2 B,2 C2 G,2 z2 D2 D3 E | %6
w: ||Vez- zo-|si\_au- gel-|li in- fra le|ver- di fron- de, in- fra le|
 F3 C D2 A,2 z2 E2 E3 F | G3 D E3 D C3 D E4 | A,4 z4 z4 z2 C2- | CC B,2 A,4 G,4 z4 | %10
w: ver- di fron- de, in- fra le|ver- di fron- * * * *|de tem-|* pra- no\_a pro- va|
 C4 B,4 A,2 B,4 C2- | C2 B,A, B,4 C8 | C,D,E,F, G,A,B,C DEFG A3 A | D4 E8 A,4 | %14
w: las- ci- vet- te no-|* * * * te|mor- * * * * * * * * * * * * mo-|ra l'au- ra,\_e|
 C4 z2 A,2 C4 z2 B,2 | C3 D B,3 C A,3 B, G,4 | A,8 B,8 | C8 C4 z2 A,2 | %18
w: fa, e fa le|fo- * * * * * *|glie\_e l'on-|* de gar-|
 G,A, B,2 z2 A,2 G,A, B,2 z2 A,2 | B,3 B, ^C4 D2 DD B,4 | =C8 z4 A,4- | A,4 F,4 F,8 | F,4 D,4 F,8 | %23
w: * * rir, gar- * * rir, che|va- ria- men- te\_el- la per- co-|te quan-|* do tac-|cion gl'au- gel-|
 F,4 z2 F,3 F, A,2 C4 | C,2 C3 C E4 G2 G2 C2- | CC E4 G4 D2 D4- | D4 D4 z2 D4 E2 | %27
w: li, al- to ris- pon-|de, al- to ris- pon- de, al-|* to ris- pon- de; quan-|* do, quan- do|
 A,G,A,B, C2 C2 A,G,A,B, C4- | C2 B,3 C D4 A,2 A,4- | A,4 G,4 G,4 F,2 E,2 | D,16 | E,8 z8 | %32
w: can- * * * * tan, can- * * * *|* tan gl'au- gei, più lie-|* ve sco- * *||te,|
 z4 z2 C2 A,2 B,2 C2 C2 | C4 E2 E2 C2 A,2 EDCB, | A,2 A,2 B,2 B,2 C4 D4 | E4 D4 B,2 ^C2 D2 A,2 | %36
w: hor ac- com- pagn', ed|ho- ra al- ter- na\_i ver- * * *|* si lor, sia ca- so\_o|d'art', hor ac- com- pa- gna,|
 z4 z2 D2 D4 F2 =C2 | A,2 F,2 F2 F2 E4 z4 | z2 E2 D2 D2 CB,A,G, A,3 B, | %39
w: ed ho- ra al-|ter- na\_i ver- si lor,|al- ter- na\_i ver- * * * * si|
 C2 G,2 E,2 C,2 G,F,E,D, C,2 C,2 | E,2 G,4 C2 A,2 D3 CB,A, | ^G,2 A,2 B,4 z4 ^C4 | D6 D2 ^C8 | %43
w: lor, al- ter- na\_i ver- * * * * si|lor, al- ter- na\_i ver- * * *|* si lor la|mu- si- ca,|
 =C4 D6 D2 ^C4 | z4 D,4 D6 D2 | CB,A,G, A,2 B,2 C2 B,2 A,3 B, | ^G,2 A,4 G,2 A,8 |] %47
w: la mu- si- ca,|la mu- si-|ca\_o- * * * * * * * * *|* * * ra.|
V:4
 A,4 | [F,,C]2 |[M:4/2] z16 | z16 | z16 | z16 | z16 | z16 | z2 A,3 A, G,2 F,4 C,4 | %9
w: ||||||||Tem- pra- no\_a pro- va|
 G,4 D,4 E,3 F, G,4 | C,4 G,4 D,4 E,3 F, | G,8 C,8 | C3 B,/A,/ G,3 F,/E,/ D,3 C,/B,,/ A,,3 A,, | %13
w: las- ci- vet- te no-|te, las- ci- vet- te|no- te|mor- * * * * * * * * * mo-|
 G,,4 C,8 F,,4 | z2 F,2 A,4 z2 A,2 C2 G,2 | A,3 F, G,3 E, F,3 D, E,4 | D,8 G,F,E,F, G,F,E,D, | %17
w: ra l'au- ra,|e fa, e fa le|fo- * * * * * *|glie\_e l'on- * * * * * * *|
 C,D,E,D, C,B,,A,,G,, F,,4 F,,2 F,2 | E,F, G,2 z2 F,2 E,F, G,2 z2 F,2 | G,3 G, A,4 D,2 D,D, G,4 | %20
w: * * * * * * * * * de gar-|* * rir, gar- * * rir, che|va- ria- men- te\_el- la per- co-|
 C,8 F,8- | F,4 _B,,4 B,,8 | F,,4 G,,4 F,,8 | F,,8 z2 F,3 F, A,2 | C4 C,2 C,2 C4 C,2 C,2 | %25
w: te quan-|* do tac-|cion gl'au- gel-|li, al- to ris-|pon- de, ris- pon- de, ris-|
 C4 C,4 G,8 | D,8 z2 G,4 C,2 | F,E,F,G, F,2 F,2 F,E,F,G, A,4 | E,3 F, G,4 D,8 | C,12 D,4 | %30
w: pon- de; quan-|do, quan- do|can- * * * * tan, can- * * * *|tan gl'au- gei, più|lie- ve|
 _B,,6 A,,2 B,,2 A,,2 B,,4 | A,,8 z8 | z4 z2 C,2 F,2 D,2 C,2 C,2 | F,4 E,4 z4 E,4 | %34
w: sco- * * * *|te,|hor ac- com- pagn', ed|ho- ra, sia|
 F,4 G,4 A,4 G,4 | z4 z2 D,2 G,2 E,2 D,2 D,2 | z4 z2 D,2 G,4 F,4 | z2 A,2 A,2 F,2 CB,A,G, F,2 F,2 | %38
w: ca- so\_o d'ar- te,|hor ac- com- pa- gna,|ed ho- ra|al- ter- na\_i ver _ _ _ _ si|
 E,2 A,2 F,2 D,2 A,G,F,E, D,2 D,2 | C,6 G,2 E,2 C,2 G,F,E,D, | C,8 D,8 | E,8 A,8 | %42
w: lor, al- ter- na\_i ver _ _ _ _ si|lor, al- ter- na\_i ver _ _ _|_ si|lor la|
 D,6 D,2 A,,4 A,4- | A,4 D,6 D,2 A,,4 | z8 D,2 E,2 F,2 G,2 | A,G,F,E, D,2 C,B,, A,,2 B,,2 C,2 D,2 | %46
w: mu- si- ca, la|_ mu- si- ca|o- * * *||
 E,8 A,,8 |] %47
w: * ra.|

